X:58
T:Bonny Billie
T:The battle of Bothwell Brigg
Z:Jack Campin - http://www.campin.me.uk
S:Blaikie MS (NLS MS.1578) p19, Blaikie #54
M:3/4
L:1/8
V:1 midi program 1 74
V:2 midi program 1 46 bass middle = d transpose -24
Q:1/4=100
K:A Minor
[V:1] A2|B>A A2  G2|B>A B2 d2|e>A A2 GG| EA     A3   A|
[V:2] z2|A2  a2  z2|a2  g2 f2|e2  a2 z2| A2     a2  z2|
%
[V:1]    B>A A2  G2|B>A B2 d2|e>A A2 G2| B>A    A2   |]
[V:2]    a2  c'2 b2|a2  g2 f2|e2 a2  z2|[A2e2] [A2a2]|]
W:Transcription (c) Jack Campin 2009, no mirroring or republication without permission

